X:1
T:Strafe the Town and Kill the People
M:4/4
L:1/16
K:C
 c3 c B3 B A3 A| E4 E12-| E4 c3 c B3 B A3 A| F16-| F4 d3- d c3 c B3 B|\
 A4- A12-| A4 D3 E F3 G A3 B| G16-| G4 c3 c B3 B A3 A| E4 E12-| E4|\
 c3 c B3 B A3 A| F16-| F4 d3 d c3 c B3 B| A4 A12-| A4 D3 E F3 G A3 B|\
 c16-| c4||

